<?xml version="1.0" encoding="UTF-8"?>
<map version="1.10" tiledversion="1.12.2" orientation="orthogonal" renderorder="right-down" width="160" height="40" tilewidth="32" tileheight="32" infinite="0" nextlayerid="19" nextobjectid="4">
 <tileset firstgid="1" name="Grass" tilewidth="32" tileheight="32" tilecount="16" columns="8">
  <image source="Grass.png" width="256" height="64"/>
  <tile id="0">
   <animation>
    <frame tileid="0" duration="100"/>
    <frame tileid="1" duration="100"/>
    <frame tileid="2" duration="100"/>
    <frame tileid="3" duration="100"/>
    <frame tileid="4" duration="100"/>
    <frame tileid="5" duration="100"/>
    <frame tileid="6" duration="100"/>
    <frame tileid="7" duration="100"/>
   </animation>
  </tile>
  <tile id="9">
   <animation>
    <frame tileid="9" duration="100"/>
    <frame tileid="10" duration="100"/>
    <frame tileid="11" duration="100"/>
    <frame tileid="12" duration="100"/>
   </animation>
  </tile>
 </tileset>
 <tileset firstgid="17" name="Shore" tilewidth="32" tileheight="32" tilecount="40" columns="8">
  <image source="Shore.png" width="256" height="160"/>
 </tileset>
 <tileset firstgid="57" name="Water" tilewidth="32" tileheight="32" tilecount="128" columns="8">
  <image source="Water.png" width="256" height="512"/>
  <tile id="0">
   <animation>
    <frame tileid="0" duration="100"/>
    <frame tileid="1" duration="100"/>
    <frame tileid="2" duration="100"/>
    <frame tileid="3" duration="100"/>
    <frame tileid="4" duration="100"/>
    <frame tileid="5" duration="100"/>
    <frame tileid="6" duration="100"/>
    <frame tileid="7" duration="100"/>
   </animation>
  </tile>
  <tile id="8">
   <animation>
    <frame tileid="8" duration="100"/>
    <frame tileid="9" duration="100"/>
    <frame tileid="10" duration="100"/>
    <frame tileid="11" duration="100"/>
    <frame tileid="12" duration="100"/>
    <frame tileid="13" duration="100"/>
    <frame tileid="14" duration="100"/>
    <frame tileid="15" duration="100"/>
   </animation>
  </tile>
  <tile id="64">
   <animation>
    <frame tileid="64" duration="100"/>
    <frame tileid="65" duration="100"/>
    <frame tileid="66" duration="100"/>
    <frame tileid="67" duration="100"/>
    <frame tileid="68" duration="100"/>
    <frame tileid="69" duration="100"/>
    <frame tileid="70" duration="100"/>
    <frame tileid="71" duration="100"/>
   </animation>
  </tile>
  <tile id="72">
   <animation>
    <frame tileid="72" duration="100"/>
    <frame tileid="73" duration="100"/>
    <frame tileid="74" duration="100"/>
    <frame tileid="75" duration="100"/>
    <frame tileid="76" duration="100"/>
    <frame tileid="77" duration="100"/>
    <frame tileid="78" duration="100"/>
    <frame tileid="79" duration="100"/>
   </animation>
  </tile>
  <tile id="80">
   <animation>
    <frame tileid="80" duration="100"/>
    <frame tileid="81" duration="100"/>
    <frame tileid="82" duration="100"/>
    <frame tileid="83" duration="100"/>
    <frame tileid="84" duration="100"/>
    <frame tileid="85" duration="100"/>
    <frame tileid="86" duration="100"/>
    <frame tileid="87" duration="100"/>
   </animation>
  </tile>
  <tile id="88">
   <animation>
    <frame tileid="88" duration="100"/>
    <frame tileid="89" duration="100"/>
    <frame tileid="90" duration="100"/>
    <frame tileid="91" duration="100"/>
    <frame tileid="92" duration="100"/>
    <frame tileid="93" duration="100"/>
    <frame tileid="94" duration="100"/>
    <frame tileid="95" duration="100"/>
   </animation>
  </tile>
  <tile id="96">
   <animation>
    <frame tileid="96" duration="100"/>
    <frame tileid="97" duration="100"/>
    <frame tileid="98" duration="100"/>
    <frame tileid="99" duration="100"/>
    <frame tileid="100" duration="100"/>
    <frame tileid="101" duration="100"/>
    <frame tileid="102" duration="100"/>
    <frame tileid="103" duration="100"/>
   </animation>
  </tile>
  <tile id="104">
   <animation>
    <frame tileid="104" duration="100"/>
    <frame tileid="105" duration="100"/>
    <frame tileid="106" duration="100"/>
    <frame tileid="107" duration="100"/>
    <frame tileid="108" duration="100"/>
    <frame tileid="109" duration="100"/>
    <frame tileid="110" duration="100"/>
    <frame tileid="111" duration="100"/>
   </animation>
  </tile>
 </tileset>
 <tileset firstgid="185" name="Terrain" tilewidth="32" tileheight="32" tilecount="304" columns="16">
  <image source="../../../../../Lập trình hướng đối tượng/Bạch Đằng /OOPBachDangGiang938/Assets/Map/Terrain.png" width="512" height="608"/>
 </tileset>
 <layer id="12" name="Background" width="160" height="40" locked="1">
  <data encoding="csv">
1,1,1,1,1,1,1,1,1,1,1,1,1,1,1,1,1,1,1,1,1,1,1,1,1,1,1,1,1,161,1,1,1,1,1,1,1,1,1,1,1,1,1,1,161,1,1,1,1,1,1,1,1,1,1,1,1,1,1,1,1,1,1,1,1,1,1,1,1,1,1,1,1,1,1,1,1,1,1,1,1,1,1,1,1,1,1,1,1,1,1,1,1,1,1,1,1,1,1,1,1,1,1,1,1,1,1,1,1,1,1,1,1,1,1,1,1,1,1,1,1,1,1,1,1,1,1,1,1,1,1,1,1,1,1,1,1,1,1,1,1,1,1,1,1,1,1,1,1,1,1,1,1,1,161,1,1,1,1,1,
1,1,1,1,1,1,1,1,1,1,1,1,1,1,1,1,1,1,1,1,1,1,1,1,1,1,1,1,1,161,1,1,1,1,1,1,1,1,1,1,1,1,1,1,161,1,1,1,1,1,1,1,1,1,1,1,1,1,1,1,1,1,1,1,1,1,1,1,1,1,1,1,1,1,1,1,1,1,1,1,1,1,1,1,1,1,1,1,1,1,1,1,1,1,1,1,1,1,1,1,1,1,1,1,1,1,1,1,1,1,1,1,1,1,1,1,1,1,1,1,1,1,1,1,1,1,1,1,1,1,1,1,1,1,1,1,1,1,1,1,1,1,1,1,1,1,1,1,1,1,1,1,1,1,161,1,1,1,1,1,
1,1,1,1,1,1,1,161,161,161,161,161,161,161,161,161,161,161,161,161,161,161,161,161,161,161,161,161,161,161,1,1,1,1,1,1,1,1,1,1,1,1,1,1,161,1,1,1,1,1,1,1,1,1,1,1,1,1,1,1,1,1,1,1,1,1,1,1,1,1,1,1,1,1,1,1,1,1,1,1,1,1,1,1,1,1,1,1,1,1,1,1,1,1,1,1,1,1,1,1,1,1,1,1,1,1,1,1,1,1,1,1,1,1,1,1,1,1,1,1,1,1,1,1,1,1,1,1,1,1,1,1,1,1,1,1,1,1,1,1,1,1,1,1,1,1,1,1,1,1,1,1,1,1,161,1,1,1,1,1,
1,1,1,1,10,1,1,161,1,1,1,1,1,1,1,1,1,1,1,1,1,1,1,1,1,1,1,1,1,1,1,1,1,1,1,1,1,1,1,1,1,1,1,1,161,1,1,1,1,1,1,1,1,1,1,1,1,1,1,1,1,1,1,1,1,1,1,1,1,1,1,1,1,1,1,1,1,1,1,1,1,1,1,1,1,1,1,1,1,1,1,1,1,1,1,1,1,1,1,1,1,1,1,1,1,1,1,1,1,1,1,1,1,1,1,1,1,1,1,1,1,1,1,1,1,1,1,1,1,1,1,1,1,1,1,1,1,1,1,1,1,1,1,1,1,1,1,1,1,161,161,161,161,161,161,1,1,1,1,1,
1,1,1,1,1,1,1,161,1,1,1,1,1,1,1,1,1,1,1,1,1,1,1,1,1,1,1,1,1,1,1,1,1,1,1,1,1,1,1,1,1,1,1,1,161,161,161,161,1,1,1,1,1,1,1,1,1,1,1,1,1,1,1,1,1,1,1,1,1,1,1,1,1,1,1,1,1,1,1,1,1,1,1,1,1,1,1,1,1,1,1,1,1,1,1,1,1,1,1,1,1,1,1,1,1,1,1,1,1,1,1,1,1,1,1,1,1,1,1,1,1,1,1,1,1,1,1,1,1,1,1,1,1,1,1,1,1,1,1,1,1,1,1,1,1,1,1,1,161,161,1,1,1,1,1,1,1,1,1,1,
161,161,161,161,161,161,161,161,1,1,1,1,1,1,1,1,1,1,1,1,1,1,1,1,1,1,1,1,1,1,1,1,1,1,1,1,1,1,1,1,1,1,1,1,1,1,1,161,1,1,1,1,1,1,1,1,1,1,1,1,1,1,1,1,1,1,1,1,1,1,1,1,1,1,1,1,1,1,1,1,1,1,1,1,1,1,161,161,161,161,161,161,161,161,161,161,161,161,161,161,161,161,161,161,161,161,161,161,161,161,161,161,161,161,161,161,161,161,161,161,161,161,161,161,161,161,161,161,161,161,161,161,161,161,161,161,161,161,161,161,161,161,161,161,161,161,161,161,161,1,1,1,1,1,1,1,1,1,1,1,
1,1,1,1,1,1,1,1,1,1,1,1,1,1,1,1,1,1,1,1,1,1,1,1,1,1,1,1,1,1,1,1,1,1,1,1,1,1,1,1,1,1,1,1,1,1,1,161,1,1,1,1,1,1,1,1,1,1,1,1,1,1,1,1,1,1,1,1,1,1,1,1,1,1,1,1,1,1,1,1,1,1,1,1,1,1,161,1,1,1,1,1,1,1,1,1,1,1,1,1,1,1,1,1,1,1,1,1,1,1,1,1,1,1,1,1,1,1,1,1,1,1,1,1,1,1,1,1,1,1,1,1,1,1,1,1,1,1,1,1,1,1,1,1,1,1,1,1,1,1,1,1,1,1,1,1,1,1,1,1,
1,1,1,1,1,1,1,1,1,1,1,1,1,1,1,1,1,1,1,1,1,1,1,1,1,1,1,1,1,1,1,1,1,1,1,1,1,1,1,1,1,1,1,1,1,1,1,161,1,1,1,1,1,1,1,1,1,1,1,1,1,1,1,1,1,1,1,1,1,1,1,1,1,1,1,1,1,1,1,1,1,1,1,1,1,1,161,1,1,1,1,1,1,1,1,1,1,1,1,1,1,1,1,1,1,1,1,1,1,1,1,1,1,1,1,1,1,1,1,1,1,1,1,1,1,1,1,1,1,1,1,1,1,1,1,1,1,1,1,1,1,1,1,1,1,1,1,1,1,1,1,1,1,1,1,1,1,1,1,1,
1,1,1,1,1,1,1,1,1,1,1,1,1,1,1,1,1,1,1,1,1,1,1,1,1,1,1,1,1,1,1,1,1,1,1,1,1,1,1,1,1,1,1,1,1,1,1,161,161,161,161,161,161,161,161,161,161,161,161,161,161,161,161,1,1,1,1,1,1,1,1,1,1,1,1,1,1,1,1,1,1,1,1,1,1,1,161,1,1,1,1,1,1,1,1,1,1,1,1,1,1,1,1,1,1,1,1,1,1,1,1,1,1,1,1,1,1,1,1,1,1,1,1,1,1,1,1,1,1,1,1,1,1,1,1,1,1,1,1,1,1,1,1,1,1,1,1,1,1,1,1,1,1,1,1,1,1,1,1,1,
1,1,1,1,1,1,1,1,1,1,1,1,1,1,1,1,1,1,1,1,1,1,1,1,1,1,1,1,1,1,1,1,1,1,1,1,1,1,1,1,1,1,1,1,1,1,1,1,1,1,1,1,1,1,1,1,1,1,1,1,1,1,161,161,161,161,161,161,161,161,161,161,161,161,161,161,161,161,161,161,161,161,161,161,161,161,161,1,1,1,1,1,1,1,1,1,1,1,1,1,1,1,1,1,1,1,1,1,1,1,1,1,1,1,1,1,1,1,1,1,1,1,1,1,1,1,1,1,1,1,1,1,1,1,1,1,1,1,1,1,1,1,1,1,1,1,1,1,1,1,1,1,1,1,1,1,1,1,1,1,
1,1,1,1,1,1,1,1,1,1,1,1,1,1,1,1,1,1,1,1,1,1,1,1,1,1,1,1,1,1,1,1,1,1,1,1,1,1,1,1,1,1,1,1,1,1,1,1,1,1,1,1,1,1,1,1,1,1,1,1,1,1,161,161,1,1,1,1,1,1,1,1,1,1,1,1,1,1,1,1,1,1,1,1,1,1,1,1,1,1,1,1,1,1,1,1,1,1,1,1,1,1,1,1,1,1,1,1,1,1,1,1,1,1,1,1,1,1,1,1,1,1,1,1,1,1,1,1,1,1,1,1,1,1,1,1,1,1,1,1,1,1,1,1,1,1,1,1,1,1,1,1,1,1,1,1,1,1,1,1,
1,1,1,1,1,1,1,1,1,1,1,1,1,1,1,1,1,1,1,1,1,1,1,1,1,1,1,1,1,1,1,1,1,1,1,1,1,1,1,1,1,1,1,1,1,1,1,1,1,1,1,1,1,1,1,1,1,1,1,1,1,1,1,1,1,1,1,1,1,1,1,1,1,1,1,1,1,1,1,1,1,1,1,1,1,1,1,1,1,1,1,1,1,1,1,1,1,1,1,1,1,1,1,1,1,1,1,1,1,1,1,1,1,1,1,1,1,1,1,1,1,1,1,1,1,1,1,1,1,1,1,1,1,1,1,1,1,1,1,1,1,1,1,1,1,1,1,1,1,1,1,1,1,1,1,1,1,1,1,1,
1,1,1,1,1,1,1,1,1,1,1,1,1,1,1,1,1,1,1,1,1,1,1,1,1,1,1,1,1,1,1,1,1,1,1,1,1,1,1,1,1,1,1,1,1,1,1,1,1,1,1,1,1,1,1,1,1,1,1,1,1,1,1,1,1,1,1,1,1,1,1,1,1,1,1,1,1,1,1,1,1,1,1,1,1,1,1,1,1,1,1,1,1,1,1,1,1,1,1,1,1,1,1,1,1,1,1,1,1,1,1,1,1,1,1,1,1,1,1,1,1,1,1,1,1,1,1,1,1,1,1,1,1,1,1,1,1,1,1,1,1,1,1,1,1,1,1,1,1,1,1,1,1,1,1,1,1,1,1,1,
1,1,1,1,1,1,1,1,1,1,1,1,1,1,1,1,1,1,1,1,1,1,1,1,1,1,1,1,1,1,1,1,1,1,1,1,1,1,1,1,1,1,1,1,1,1,1,1,1,1,1,1,1,1,1,1,1,1,1,1,1,1,1,1,1,1,1,1,1,1,1,1,1,1,1,1,1,1,1,1,1,1,1,1,1,1,1,1,1,1,1,1,1,1,1,1,1,1,1,1,1,1,1,1,1,1,1,1,1,1,1,1,1,1,1,1,1,1,1,1,1,1,1,1,1,1,1,1,1,1,1,1,1,1,1,1,1,1,1,1,1,1,1,1,1,1,1,1,1,1,1,1,1,1,1,1,1,1,1,1,
1,1,1,1,1,1,1,1,1,1,1,1,1,1,1,1,1,1,1,1,1,1,1,1,1,1,1,1,1,1,1,1,1,1,1,1,1,1,1,1,1,1,1,1,1,1,1,1,1,1,1,1,1,1,1,1,1,1,1,1,1,1,1,1,1,1,1,1,1,1,1,1,1,1,1,1,1,1,1,1,1,1,1,1,1,1,1,1,1,1,1,1,1,1,1,1,1,1,1,1,1,1,1,1,1,1,1,1,1,1,1,1,1,1,1,1,1,1,1,1,1,1,1,1,1,1,1,1,1,1,1,1,1,1,1,1,1,1,1,1,1,1,1,1,1,1,1,1,1,1,1,1,1,1,1,1,1,1,1,1,
1,1,1,1,1,1,1,1,1,1,1,1,1,1,1,1,1,1,1,1,1,1,1,1,1,1,1,1,1,1,1,1,1,1,1,1,1,1,1,1,1,1,1,1,1,1,1,1,1,1,1,1,1,1,1,1,1,1,1,1,1,1,1,1,1,1,1,1,1,1,1,1,1,1,1,1,1,1,1,1,1,1,1,1,1,1,1,1,1,1,1,1,1,1,1,1,1,1,1,1,1,1,1,1,1,1,1,1,1,1,1,1,1,1,1,1,1,1,1,1,1,1,1,1,1,1,1,1,1,1,1,1,1,1,1,1,1,1,1,1,1,1,1,1,1,1,1,1,1,1,1,1,1,1,1,1,1,1,1,1,
1,1,1,1,1,1,1,1,1,1,1,1,1,1,1,1,1,1,1,1,1,1,1,1,1,1,1,1,1,1,1,1,1,1,1,1,1,1,1,1,1,1,1,1,1,1,1,1,1,1,1,1,1,1,1,1,1,1,1,1,1,1,1,1,1,1,1,1,1,1,1,1,1,1,1,1,1,1,1,1,1,1,1,1,1,1,1,1,1,1,1,1,1,1,1,1,1,1,1,1,1,1,1,1,1,1,1,1,1,1,1,1,1,1,1,1,1,1,1,1,1,1,1,1,1,1,1,1,1,1,1,1,1,1,1,1,1,1,1,1,1,1,1,1,1,1,1,1,1,1,1,1,1,1,1,1,1,161,161,161,
1,1,1,1,1,1,1,1,1,1,1,1,1,1,1,1,1,1,1,1,1,1,1,1,1,1,1,1,1,1,1,1,1,1,1,1,1,1,1,1,1,1,1,1,1,1,1,1,1,1,1,1,1,1,1,1,1,1,1,1,1,1,1,1,1,1,1,1,1,1,1,1,1,1,1,1,1,1,1,1,1,1,1,1,1,1,1,1,1,1,1,1,1,1,1,1,1,1,1,1,1,1,1,1,1,1,1,1,1,1,1,1,1,1,1,1,1,1,1,1,1,1,1,1,1,1,1,1,1,1,1,1,1,1,1,1,1,1,1,1,1,1,1,1,1,1,1,1,1,1,1,1,1,1,1,161,161,161,1,1,
161,161,161,161,161,161,161,161,161,1,1,1,1,1,1,1,1,1,1,1,1,1,1,1,1,1,1,1,1,1,1,1,1,1,1,1,1,1,1,1,1,1,1,1,1,1,1,1,1,1,1,1,1,1,1,1,1,1,1,1,1,1,1,1,1,1,1,1,1,1,1,1,1,1,1,1,1,1,1,1,1,1,1,1,1,1,1,1,1,1,1,1,1,1,1,1,1,1,1,1,1,1,1,1,1,1,1,1,1,1,1,1,1,1,1,1,1,1,1,1,1,1,1,1,1,1,1,1,1,1,1,1,1,1,1,1,1,1,1,1,1,1,1,1,1,1,1,1,1,1,1,1,1,161,161,161,1,1,1,1,
1,1,1,1,1,1,1,1,161,161,1,1,1,1,1,1,1,1,1,1,161,161,161,161,161,161,161,161,161,1,1,1,1,1,1,1,1,1,1,1,1,1,1,1,1,1,1,1,1,1,1,1,1,1,1,1,1,1,1,1,1,1,1,1,1,1,1,1,1,1,1,1,1,1,1,1,1,1,1,1,1,1,1,1,1,1,1,1,1,1,1,1,1,1,161,161,161,161,161,161,161,161,161,161,161,161,161,161,161,161,161,161,161,1,1,1,1,1,1,1,1,1,1,1,1,1,1,1,1,1,1,1,1,1,1,1,1,1,1,1,1,1,1,1,1,1,1,1,1,161,161,161,161,161,1,1,1,1,1,1,
1,1,1,1,1,1,1,1,1,161,161,161,161,161,161,161,161,161,161,161,161,1,1,1,1,1,1,1,161,161,1,1,1,1,1,1,1,1,1,1,1,1,1,1,1,1,1,1,1,1,1,1,1,1,1,1,1,1,1,1,1,1,1,1,1,1,1,1,1,1,1,1,1,1,1,1,161,161,161,161,161,161,1,161,161,161,161,161,161,161,161,161,161,161,161,1,1,1,1,1,1,1,1,1,1,1,1,1,1,1,1,1,161,161,1,1,1,1,1,1,1,1,1,1,1,1,1,1,1,1,1,1,1,1,1,1,1,1,161,161,161,161,161,161,161,161,161,161,161,161,1,1,1,1,1,1,1,1,1,1,
1,1,1,1,1,1,1,1,1,1,1,1,1,1,1,1,1,1,1,1,1,1,1,1,1,1,1,1,1,161,1,1,1,1,1,1,1,1,1,1,1,1,1,1,1,1,1,1,1,1,1,1,1,1,1,1,1,1,1,1,1,1,1,1,1,1,1,1,1,1,1,1,1,161,161,161,161,1,1,1,1,161,161,161,1,1,1,1,1,1,1,1,1,1,1,1,1,1,1,1,1,1,1,1,1,1,1,1,1,1,1,1,1,161,161,1,1,1,1,1,1,1,1,1,1,1,1,1,1,1,1,1,1,1,1,1,161,161,161,1,1,1,1,1,1,1,1,1,1,1,1,1,1,1,1,1,1,1,1,1,
1,1,1,1,1,1,1,1,1,1,1,1,1,1,1,1,1,1,1,1,1,1,1,1,1,1,1,1,1,161,161,1,1,1,1,1,1,1,1,1,1,1,1,1,1,1,1,1,1,1,1,1,1,1,1,1,1,1,1,1,1,1,1,1,1,1,1,1,1,1,1,1,1,161,1,1,1,1,1,1,1,1,1,1,1,1,1,1,1,1,1,1,1,1,1,1,1,1,1,1,1,1,1,1,1,1,1,1,1,1,1,1,1,1,161,161,161,161,161,1,1,1,1,1,1,1,1,1,1,1,1,1,1,161,161,161,161,1,1,1,1,1,1,1,1,1,1,1,1,1,1,1,1,1,1,1,1,1,1,1,
1,1,1,1,1,1,1,1,1,1,1,1,1,1,1,1,1,1,1,1,1,1,1,1,1,1,1,1,1,1,161,161,161,161,161,161,161,161,161,161,161,161,161,161,161,161,161,161,161,161,161,161,161,161,161,161,161,161,161,161,161,161,161,161,161,161,161,161,161,161,161,161,161,161,1,1,1,1,1,1,1,1,1,1,1,1,1,1,1,1,1,1,1,1,1,1,1,1,1,1,1,1,1,1,1,1,1,1,1,1,1,1,1,1,1,1,1,1,161,161,161,161,161,161,161,161,161,161,161,161,161,161,161,161,1,1,1,1,1,1,1,1,1,1,1,1,1,1,1,1,1,1,1,1,1,1,1,1,1,1,
1,1,1,1,1,1,1,1,1,1,1,1,1,1,1,1,1,1,1,1,1,1,1,1,1,1,1,1,1,1,1,1,1,1,1,1,1,1,1,1,1,1,1,1,1,1,1,1,1,1,1,1,1,1,1,1,1,1,1,1,1,1,1,1,1,1,1,1,1,1,1,1,1,1,1,1,1,1,1,1,1,1,1,1,1,1,1,1,1,1,1,1,1,1,1,1,1,1,1,1,1,1,1,1,1,1,1,1,1,1,1,1,1,1,1,1,1,1,1,1,1,1,1,1,1,1,1,1,1,1,1,1,1,1,1,1,1,1,1,1,1,1,1,1,1,1,1,1,1,1,1,1,1,1,1,1,1,1,1,1,
1,1,1,1,1,1,1,1,1,1,1,1,1,1,1,1,1,1,1,1,1,1,1,1,1,1,1,1,1,1,1,1,1,1,1,1,1,1,1,1,1,1,1,1,1,1,1,1,1,1,1,1,1,1,1,1,1,1,1,1,1,1,1,1,1,1,1,1,1,1,1,1,1,1,1,1,1,1,1,1,1,1,1,1,1,1,1,1,1,1,1,1,1,1,1,1,1,1,1,1,1,1,1,1,1,1,1,1,1,1,1,1,1,1,1,1,1,1,1,1,1,1,1,1,1,1,1,1,1,1,1,1,1,1,1,1,1,1,1,1,1,1,1,1,1,1,1,1,1,1,1,1,1,1,1,1,1,1,1,1,
1,1,1,1,1,1,1,1,1,1,1,1,1,1,1,1,1,1,1,1,1,1,1,1,1,1,1,1,1,1,1,1,1,1,1,1,1,1,1,1,1,1,1,1,1,1,1,1,1,1,1,1,1,1,1,1,1,1,1,1,1,1,1,1,1,1,1,1,1,1,1,1,1,1,1,1,1,1,1,1,1,1,1,1,1,1,1,1,1,1,1,1,1,1,1,1,1,1,1,1,1,1,1,1,1,1,1,1,1,1,1,1,1,1,1,1,1,1,1,1,1,1,1,1,1,1,1,1,1,1,1,1,1,1,1,1,1,1,1,1,1,1,1,1,1,1,1,1,1,1,1,1,1,1,1,1,1,1,1,1,
1,1,1,1,1,1,1,1,1,1,1,1,1,10,1,1,1,1,1,1,1,1,1,1,1,1,1,1,1,1,1,1,1,1,1,1,1,1,1,1,1,1,1,1,1,1,1,1,1,1,1,1,1,1,1,1,1,1,1,1,1,1,1,1,1,1,1,1,1,1,1,1,1,1,1,1,1,1,1,1,1,1,1,1,1,1,1,1,1,1,1,1,1,1,1,1,1,1,1,1,1,1,1,1,1,1,1,1,1,1,1,1,1,1,1,1,1,1,1,1,1,1,1,1,1,1,1,1,1,1,1,1,1,1,1,1,1,1,1,1,1,1,1,1,1,1,1,1,1,1,1,1,1,1,1,1,1,1,1,1,
1,1,1,1,1,1,1,1,1,1,1,1,1,1,1,1,1,1,1,1,1,1,1,1,1,1,1,1,1,1,1,1,1,1,1,1,1,1,1,1,1,1,1,1,1,1,1,1,1,1,1,1,1,1,1,1,1,1,1,1,1,1,1,1,1,1,1,1,1,1,1,1,1,1,1,1,1,1,1,1,1,1,1,1,1,1,1,1,1,1,1,1,1,1,1,1,1,1,1,1,1,1,1,1,1,1,1,1,1,1,1,1,1,1,1,1,1,1,1,1,1,1,1,1,1,1,1,1,1,1,1,1,1,1,1,1,1,1,1,1,1,1,1,1,1,1,1,1,1,1,1,1,1,1,1,1,1,1,1,1,
1,1,1,1,1,1,1,1,1,1,1,1,1,1,1,1,1,1,1,1,1,1,1,1,1,1,1,1,1,1,1,1,1,1,1,1,1,1,1,1,1,1,1,1,1,1,1,1,1,1,1,1,1,1,1,1,1,1,1,1,1,1,1,1,1,1,1,1,1,1,1,1,1,1,1,1,1,1,1,1,1,1,1,1,1,1,1,1,1,1,1,1,1,1,1,1,1,1,1,1,1,1,1,1,1,1,1,1,1,1,1,1,1,1,1,1,1,1,1,1,1,1,1,1,1,1,1,1,1,1,1,1,1,1,1,1,1,1,1,1,1,1,1,1,1,1,1,1,1,1,1,1,1,1,1,1,1,1,1,1,
1,1,1,1,1,1,1,1,1,1,1,1,1,1,10,1,1,1,1,1,1,1,1,1,1,1,1,1,1,1,1,1,1,1,1,1,1,1,1,1,1,1,1,1,1,1,1,1,1,1,1,1,1,1,1,1,1,1,1,1,1,1,1,1,1,1,1,1,1,1,1,1,1,1,1,1,1,1,1,1,1,1,1,1,1,1,1,1,1,1,1,1,1,1,1,1,1,1,1,1,1,1,1,1,1,1,1,1,1,1,1,1,1,1,1,1,1,1,1,1,1,1,1,1,1,1,1,1,1,1,1,1,1,1,1,1,1,1,1,1,1,1,1,1,1,1,1,1,1,1,1,1,1,1,1,1,1,1,1,1,
1,1,1,1,10,1,1,1,1,1,1,1,1,1,1,1,1,1,1,1,1,1,1,1,1,1,1,1,1,1,1,1,1,1,1,1,1,1,1,1,1,1,1,1,1,1,1,1,1,1,1,1,1,1,1,1,1,1,1,1,1,1,1,1,1,1,1,1,1,1,1,1,1,1,1,1,1,1,1,1,1,1,1,1,1,1,1,1,1,1,1,1,1,1,1,1,1,1,1,1,1,1,1,1,1,1,1,1,1,1,1,1,1,1,1,1,1,1,1,1,1,1,1,1,1,1,1,1,1,1,1,1,1,1,1,1,1,1,1,1,1,1,1,1,1,1,1,1,1,1,1,1,1,1,1,1,1,1,1,1,
1,1,1,1,1,1,1,1,1,1,1,1,1,1,1,1,1,1,1,1,1,1,1,1,1,1,1,1,1,1,1,1,1,1,1,1,1,1,1,1,1,1,1,1,1,1,1,1,1,1,1,1,1,1,1,1,1,1,1,1,1,1,1,1,1,1,1,1,1,1,1,1,1,1,1,1,1,1,1,1,1,1,1,1,1,1,1,1,1,1,1,1,1,1,1,1,1,1,1,1,1,1,1,1,1,1,1,1,1,1,1,1,1,1,1,1,1,1,1,1,1,1,1,1,1,1,1,1,1,1,1,1,1,1,1,1,1,1,1,1,1,1,1,1,1,1,1,1,1,1,1,1,1,1,1,1,1,1,1,1,
1,1,1,1,1,1,1,1,1,1,1,1,1,1,1,1,1,1,1,1,1,1,1,1,1,1,1,1,1,1,1,1,1,1,1,1,1,1,1,1,1,1,1,1,1,1,1,1,1,1,1,1,1,1,1,1,1,1,1,1,1,1,1,1,1,1,1,1,1,1,1,1,1,1,1,1,1,1,1,1,1,1,1,1,1,1,1,1,1,1,1,1,1,1,1,1,1,1,1,1,1,1,1,1,1,1,1,1,1,1,1,1,1,1,1,1,1,1,1,1,1,1,1,1,1,1,1,1,1,1,1,1,1,1,1,1,1,1,1,1,1,1,1,1,1,1,1,1,1,1,1,1,1,1,1,1,1,1,1,1,
1,1,1,1,10,1,1,10,1,1,1,1,1,1,1,1,1,1,1,1,1,1,1,1,1,1,1,1,1,1,1,1,1,1,1,1,1,1,1,1,1,1,1,1,1,1,1,1,1,1,1,1,1,1,1,1,1,1,1,1,1,1,1,1,1,1,1,1,1,1,1,1,1,1,1,1,1,1,1,1,1,1,1,1,1,1,1,1,1,1,1,1,1,1,1,1,1,1,1,1,1,1,1,1,1,1,1,1,1,1,1,1,1,1,1,1,1,1,1,1,1,1,1,1,1,1,1,1,1,1,1,1,1,1,1,1,1,1,1,1,1,1,1,1,1,1,1,1,1,1,1,1,1,1,1,1,1,1,1,1,
10,1,1,1,1,1,1,1,1,1,1,1,1,1,1,1,1,1,1,1,1,1,1,1,1,1,1,1,1,1,1,1,1,1,1,1,1,1,1,1,1,1,1,1,1,1,1,1,1,1,1,1,1,1,1,1,1,1,1,1,1,1,1,1,1,1,1,1,1,1,1,1,1,1,1,1,1,1,1,1,1,1,1,1,1,1,1,1,1,1,1,1,1,1,1,1,1,1,1,1,1,1,1,1,1,1,1,1,1,1,1,1,1,1,1,1,1,1,1,1,1,1,1,1,1,1,1,1,1,1,1,1,1,1,1,1,1,1,1,1,1,1,1,1,1,1,1,1,1,1,1,1,1,1,1,1,1,1,1,1,
1,1,1,1,1,1,1,1,1,1,1,1,1,1,1,1,1,1,1,1,1,1,1,1,1,1,1,1,1,1,1,1,1,1,1,1,1,1,1,1,1,1,1,1,1,1,1,1,1,1,1,1,1,1,1,1,1,1,1,1,1,1,1,1,1,1,1,1,1,1,1,1,1,1,1,1,1,1,1,1,1,1,1,1,1,1,1,1,1,1,1,1,1,1,1,1,1,1,1,1,1,1,1,1,1,1,1,1,1,1,1,1,1,1,1,1,1,1,1,1,1,1,1,1,1,1,1,1,1,1,1,1,1,1,1,1,1,1,1,1,1,1,1,1,1,1,1,1,1,1,1,1,1,1,1,1,1,1,1,1,
1,1,1,1,1,1,1,1,1,1,1,1,1,1,1,1,1,1,1,1,1,1,1,1,1,1,1,1,1,1,1,1,1,1,1,1,1,1,1,1,1,1,1,1,1,1,1,1,1,1,1,1,1,1,1,1,1,1,1,1,1,1,1,1,1,1,1,1,1,1,1,1,1,1,1,1,1,1,1,1,1,1,1,1,1,1,1,1,1,1,1,1,1,1,1,1,1,1,1,1,1,1,1,1,1,1,1,1,1,1,1,1,1,1,1,1,1,1,1,1,1,1,1,1,1,1,1,1,1,1,1,1,1,1,1,1,1,1,1,1,1,1,1,1,1,1,1,1,1,1,1,1,1,1,1,1,1,1,1,1,
1,1,1,1,1,1,1,1,1,1,1,1,1,1,1,1,1,1,1,1,1,1,1,1,1,1,1,1,1,1,1,1,1,1,1,1,1,1,1,1,1,1,1,1,1,1,1,1,1,1,1,1,1,1,1,1,1,1,1,1,1,1,1,1,1,1,1,1,1,1,1,1,1,1,1,1,1,1,1,1,1,1,1,1,1,1,1,1,1,1,1,1,1,1,1,1,1,1,1,1,1,1,1,1,1,1,1,1,1,1,1,1,1,1,1,1,1,1,1,1,1,1,1,1,1,1,1,1,1,1,1,1,1,1,1,1,1,1,1,1,1,1,1,1,1,1,1,1,1,1,1,1,1,1,1,1,1,1,1,1,
1,1,1,1,1,1,1,1,1,1,1,1,1,1,1,1,1,1,1,1,1,1,1,1,1,1,1,1,1,1,1,1,1,1,1,1,1,1,1,1,1,1,1,1,1,1,1,1,1,1,1,1,1,1,1,1,1,1,1,1,1,1,1,1,1,1,1,1,1,1,1,1,1,1,1,1,1,1,1,1,1,1,1,1,1,1,1,1,1,1,1,1,1,1,1,1,1,1,1,1,1,1,1,1,1,1,1,1,1,1,1,1,1,1,1,1,1,1,1,1,1,1,1,1,1,1,1,1,1,1,1,1,1,1,1,1,1,1,1,1,1,1,1,1,1,1,1,1,1,1,1,1,1,1,1,1,1,1,1,1
</data>
 </layer>
 <layer id="11" name="Water" width="160" height="40" locked="1">
  <data encoding="csv">
0,0,0,0,0,0,0,0,0,0,0,0,0,0,0,0,10,0,0,0,10,0,0,0,0,0,0,0,0,22,161,153,145,137,129,121,65,65,121,129,137,145,153,161,20,0,0,0,0,0,0,0,0,0,0,0,0,0,0,0,0,0,0,0,0,0,0,0,0,0,0,0,0,0,0,0,0,0,0,0,0,0,0,0,0,0,0,0,0,0,0,0,0,0,0,0,0,0,0,0,0,0,0,0,0,0,0,0,0,0,0,0,0,0,0,0,0,0,0,0,0,0,0,0,0,0,0,0,0,0,0,0,0,0,0,0,0,10,0,0,0,0,0,0,0,0,0,0,0,0,0,0,0,0,26,161,153,145,137,129,
0,10,0,0,0,0,0,0,0,0,0,0,0,0,0,0,0,0,0,0,0,0,0,0,10,0,0,0,0,30,161,153,145,137,129,121,65,65,121,129,137,145,153,161,28,0,0,10,0,0,0,0,0,0,0,0,10,0,0,0,0,0,0,0,0,0,0,0,0,0,0,0,0,0,0,0,0,0,0,0,0,0,0,0,0,0,0,0,0,0,0,0,0,0,0,0,0,0,0,0,0,0,0,0,0,0,0,0,0,0,0,0,0,0,0,0,0,0,0,0,0,0,0,0,0,0,0,0,0,0,0,0,0,0,0,0,0,0,0,0,0,0,0,0,10,0,0,0,0,0,0,0,0,0,18,161,153,145,137,129,
0,0,0,0,0,10,0,39,19,27,19,19,19,19,19,27,27,19,27,27,19,27,19,27,19,27,27,19,19,35,161,153,145,137,129,121,65,65,121,129,137,145,153,161,20,0,0,0,0,10,0,0,0,0,0,0,0,0,0,0,0,0,0,0,0,0,0,0,0,0,0,10,0,0,0,0,0,0,0,0,0,10,0,0,0,0,0,0,10,0,0,0,0,0,0,0,0,0,0,0,0,0,0,0,0,10,0,0,0,0,0,0,0,0,0,0,0,0,0,0,0,0,0,0,0,0,0,0,0,0,0,0,0,0,0,0,0,0,0,0,0,0,0,0,0,0,0,0,0,0,0,10,0,0,26,161,153,145,137,129,
0,10,0,0,0,0,0,18,161,161,161,161,161,161,161,161,161,161,161,161,161,161,161,161,161,161,161,161,161,161,161,153,145,137,129,121,65,65,121,129,137,145,153,161,28,0,0,0,0,0,0,0,0,0,0,0,0,0,0,0,0,0,0,0,0,0,0,0,0,0,0,0,0,0,0,0,0,0,0,0,0,0,0,0,0,0,0,0,0,0,0,0,0,0,0,0,0,0,0,10,0,0,0,0,0,0,0,0,10,0,0,0,0,0,0,0,0,0,0,10,0,0,0,0,0,0,0,0,0,0,0,10,0,0,0,0,0,0,0,0,0,0,0,0,0,0,0,0,0,39,27,19,19,27,35,161,153,145,137,129,
0,0,0,0,0,0,0,26,161,153,153,153,153,153,153,153,153,153,153,153,153,153,153,153,153,153,153,153,153,153,153,153,145,137,129,121,65,65,121,129,137,145,153,161,36,27,19,40,0,0,0,0,0,0,0,0,0,0,0,0,0,0,0,0,0,0,0,0,0,0,0,0,0,0,0,10,0,0,0,0,0,0,0,0,0,0,0,0,0,0,0,0,0,0,0,0,0,0,0,0,0,0,0,0,0,0,0,0,0,0,0,0,0,0,10,0,0,0,0,0,0,0,0,0,0,0,0,0,0,0,0,0,0,0,0,0,0,0,0,0,0,0,0,0,0,0,0,0,39,35,161,161,161,161,161,161,153,145,137,129,
19,27,19,19,27,19,19,35,161,153,145,145,145,145,145,145,145,145,145,145,145,145,145,145,145,145,145,145,145,145,145,145,145,137,129,121,65,65,121,129,137,145,153,161,161,161,161,20,0,0,0,0,0,10,0,0,0,0,0,0,0,0,0,0,0,0,0,0,0,0,0,0,0,0,0,0,0,0,0,0,0,0,0,0,0,0,39,27,19,27,19,27,27,19,27,19,19,19,19,19,19,19,27,19,19,19,19,27,19,27,19,27,19,27,27,19,19,19,27,19,19,19,19,19,27,19,19,27,19,19,27,27,19,27,19,27,27,27,19,27,27,27,19,19,19,27,19,27,35,161,161,153,153,153,153,153,153,145,137,129,
161,161,161,161,161,161,161,161,161,153,145,137,137,137,137,137,137,137,137,137,137,137,137,137,137,137,137,137,137,137,137,137,137,137,129,121,65,65,121,129,137,145,153,153,153,153,161,28,0,0,0,0,0,0,0,0,0,0,0,0,0,0,10,0,0,0,0,0,10,0,0,0,0,0,0,0,0,0,0,0,0,0,0,0,0,0,26,161,161,161,161,161,161,161,161,161,161,161,161,161,161,161,161,161,161,161,161,161,161,161,161,161,161,161,161,161,161,161,161,161,161,161,161,161,161,161,161,161,161,161,161,161,161,161,161,161,161,161,161,161,161,161,161,161,161,161,161,161,161,161,153,153,145,145,145,145,145,145,137,129,
153,153,153,153,153,153,153,153,153,153,145,137,129,129,129,129,129,129,129,129,129,129,129,129,129,129,129,129,129,129,129,129,129,129,129,121,65,65,121,129,137,145,145,145,145,153,161,20,0,0,0,0,0,0,0,0,0,0,0,0,0,0,0,0,0,0,0,0,0,0,0,0,0,0,0,0,0,0,0,0,0,0,10,0,0,0,18,161,153,153,153,153,153,153,153,153,153,153,153,153,153,153,153,153,153,153,153,153,153,153,153,153,153,153,153,153,153,153,153,153,153,153,153,153,153,153,153,153,153,153,153,153,153,153,153,153,153,153,153,153,153,153,153,153,153,153,153,153,153,153,153,145,145,137,137,137,137,137,137,129,
145,145,145,145,145,145,145,145,145,145,145,137,129,121,121,121,121,121,121,121,121,121,121,121,121,121,121,121,121,121,121,121,121,121,121,121,65,65,121,129,137,137,137,137,145,153,161,36,19,27,19,27,27,27,19,27,27,19,27,27,19,19,40,0,0,0,0,0,0,0,0,0,0,0,0,0,0,0,0,0,0,0,0,0,0,0,26,161,153,145,145,145,145,145,145,145,145,145,145,145,145,145,145,145,145,145,145,145,145,145,145,145,145,145,145,145,145,145,145,145,145,145,145,145,145,145,145,145,145,145,145,145,145,145,145,145,145,145,145,145,145,145,145,145,145,145,145,145,145,145,145,145,137,137,129,129,129,129,129,129,
137,137,137,137,137,137,137,137,137,137,137,137,129,121,65,65,65,65,65,65,65,65,65,65,65,65,65,65,65,65,65,65,65,65,65,65,65,65,121,129,129,129,129,137,145,153,161,161,161,161,161,161,161,161,161,161,161,161,161,161,161,161,20,39,27,19,27,27,19,27,19,19,19,19,27,19,27,19,27,19,27,19,19,27,19,27,35,161,153,145,137,137,137,137,137,137,137,137,137,137,137,137,137,137,137,137,137,137,137,137,137,137,137,137,137,137,137,137,137,137,137,137,137,137,137,137,137,137,137,137,137,137,137,137,137,137,137,137,137,137,137,137,137,137,137,137,137,137,137,137,137,137,137,129,129,121,121,121,121,121,
129,129,129,129,129,129,129,129,129,129,129,129,129,121,65,57,57,57,57,57,57,57,57,57,57,57,57,57,57,57,57,57,57,57,57,57,57,65,121,121,121,121,129,137,145,153,153,153,153,153,153,153,153,153,153,153,153,153,153,153,153,161,36,35,161,161,161,161,161,161,161,161,161,161,161,161,161,161,161,161,161,161,161,161,161,161,161,161,153,145,137,129,129,129,129,129,129,129,129,129,129,129,129,129,129,129,129,129,129,129,129,129,129,129,129,129,129,129,129,129,129,129,129,129,129,129,129,129,129,129,129,129,129,129,129,129,129,129,129,129,129,129,129,129,129,129,129,129,129,129,129,129,129,129,121,121,121,121,121,121,
121,121,121,121,121,121,121,121,121,121,121,121,121,121,65,65,57,57,57,57,57,57,57,57,57,57,57,57,57,57,57,57,57,57,57,57,57,65,65,65,65,121,129,137,145,145,145,145,145,145,145,145,145,145,145,145,145,145,145,145,153,161,161,161,161,153,153,153,153,153,153,153,153,153,153,153,153,153,153,153,153,153,153,153,153,153,153,153,153,145,137,129,121,121,121,121,121,121,121,121,121,121,121,121,121,121,121,121,121,121,121,121,121,121,121,121,121,121,121,121,121,121,121,121,121,121,121,121,121,121,121,121,121,121,121,121,121,121,121,121,121,121,121,121,121,121,121,121,121,121,121,121,129,129,129,129,129,129,129,129,
121,121,121,121,121,121,121,121,121,121,121,121,121,121,121,65,65,65,65,65,65,65,65,65,65,65,65,65,65,65,65,65,65,65,65,65,57,57,57,57,65,121,129,137,137,137,137,137,137,137,137,137,137,137,137,137,137,137,137,145,153,153,153,153,153,153,145,145,145,145,145,145,145,145,145,145,145,145,145,145,145,145,145,145,145,145,145,145,145,145,137,129,121,65,65,65,65,65,65,65,65,65,65,65,65,65,65,65,65,65,65,65,65,65,65,65,65,65,65,65,65,65,65,65,65,65,65,65,65,65,65,65,65,65,65,65,65,65,65,65,65,65,65,65,65,65,65,121,121,121,129,129,129,137,137,137,137,137,137,137,
129,129,129,129,129,129,129,129,129,129,129,129,129,129,121,121,121,121,121,121,121,121,121,121,121,121,121,121,121,121,121,121,121,121,121,65,65,57,57,57,65,121,129,129,129,129,129,129,129,129,129,129,129,129,129,129,129,129,137,145,145,145,145,145,145,145,145,137,137,137,137,137,137,137,137,137,137,137,137,137,137,137,137,137,137,137,137,137,137,137,137,129,121,121,121,121,121,121,121,121,121,121,121,121,121,121,121,121,121,121,121,121,121,121,121,121,121,121,121,65,65,57,57,57,57,57,57,57,57,57,57,65,65,65,65,65,65,65,65,65,65,65,65,121,121,121,121,121,129,129,129,137,137,137,145,145,145,145,145,145,
137,137,137,137,137,137,137,137,137,137,137,137,137,129,129,129,129,129,129,129,129,129,129,129,129,129,129,129,129,129,129,129,129,129,121,121,65,57,57,57,65,121,121,121,121,121,121,121,121,121,121,121,121,121,121,121,121,129,137,137,137,137,137,137,137,137,137,137,129,129,129,129,129,129,129,129,129,129,129,129,129,129,129,129,129,129,129,129,129,129,129,129,129,129,129,129,129,129,129,129,129,129,129,129,129,129,129,129,129,129,129,129,129,129,129,129,129,129,121,121,65,65,57,57,57,57,57,57,57,65,65,65,121,121,121,121,121,121,121,121,121,121,121,121,129,129,129,129,129,137,137,137,145,145,145,153,153,153,153,153,
145,145,145,145,145,145,145,145,145,145,145,145,137,137,129,129,137,137,137,137,137,137,137,137,137,137,137,137,137,137,137,137,137,129,129,121,65,65,57,57,65,65,65,65,65,65,65,65,65,65,65,65,65,65,65,65,121,129,129,129,129,129,129,129,129,129,129,129,129,121,121,129,129,129,129,129,129,129,129,129,129,129,129,129,129,129,129,129,129,129,137,137,137,137,137,137,137,137,137,137,137,137,137,137,137,137,137,137,137,137,137,137,137,137,137,137,137,129,129,121,121,65,65,65,65,65,65,65,65,65,121,121,121,129,129,129,129,129,129,129,129,129,129,129,129,137,137,137,137,137,145,145,145,153,153,153,161,161,161,161,
153,153,153,153,153,153,153,153,153,153,153,145,145,137,137,137,137,145,145,145,145,145,145,145,145,145,145,145,145,145,145,145,137,137,129,121,121,65,65,65,65,65,65,65,65,65,65,65,65,65,65,65,65,65,65,65,121,121,121,121,121,121,121,121,121,121,121,121,129,129,129,129,137,137,137,137,137,137,137,137,137,137,137,137,137,137,137,137,137,137,137,145,145,145,145,145,145,145,145,145,145,145,145,145,145,145,145,145,145,145,145,145,145,145,145,145,137,137,129,129,121,121,121,121,121,65,65,121,121,121,121,129,129,129,137,137,137,137,137,137,137,137,137,137,137,137,145,145,145,145,145,153,153,153,161,161,161,33,17,25,
161,161,161,161,161,161,161,161,161,161,153,153,145,145,145,145,145,145,153,153,153,153,153,153,153,153,153,153,153,153,153,145,145,137,129,129,121,121,121,121,121,121,121,121,121,121,121,121,121,121,121,121,121,121,121,121,121,121,121,121,121,121,121,121,121,121,121,121,129,137,137,137,137,145,145,145,145,145,145,145,145,145,145,145,145,145,145,145,145,145,145,145,153,153,153,153,153,153,153,153,153,153,153,153,153,153,153,153,153,153,153,153,153,153,153,145,145,137,137,129,129,129,129,129,121,121,121,121,129,129,129,129,137,137,137,145,145,145,145,145,145,145,145,145,145,145,145,153,153,153,153,153,161,161,161,33,17,37,0,0,
25,17,25,25,25,17,25,17,34,161,161,153,153,153,153,153,153,153,153,161,161,161,161,161,161,161,161,161,161,161,153,153,145,137,137,129,129,129,129,129,129,129,129,129,129,129,129,129,129,129,129,129,129,129,129,129,129,129,129,129,129,129,129,129,129,129,129,129,129,137,145,145,145,145,153,153,153,153,153,153,153,153,153,153,153,153,153,153,153,153,153,153,153,161,161,161,161,161,161,161,161,161,161,161,161,161,161,161,161,161,161,161,161,161,153,153,145,145,137,137,137,137,137,129,129,129,129,129,129,137,137,137,137,145,145,145,153,153,153,153,153,153,153,153,153,153,153,153,161,161,161,161,161,33,17,37,0,0,10,0,
0,0,0,0,0,0,0,0,38,34,161,161,161,161,161,161,161,161,161,161,33,25,17,25,25,17,25,17,34,161,161,153,145,145,137,137,137,137,137,137,137,137,137,137,137,137,137,137,137,137,137,137,137,137,137,137,137,137,137,137,137,137,137,137,137,137,137,137,137,137,145,153,153,153,153,161,161,161,161,161,161,161,161,161,161,161,161,161,161,161,161,161,161,161,33,25,17,25,17,25,25,17,25,17,25,17,25,25,17,25,17,25,34,161,161,153,153,145,145,145,145,145,137,137,137,137,137,137,137,137,145,145,145,145,153,153,153,161,161,161,161,161,161,161,161,161,161,161,161,33,25,17,25,37,0,0,0,0,0,0,
0,0,0,0,0,0,0,0,0,38,25,17,25,17,25,17,17,25,25,17,37,0,0,0,0,0,0,0,38,34,161,153,153,145,145,145,145,145,145,145,145,145,145,145,145,145,145,145,145,145,145,145,145,145,145,145,145,145,145,145,145,145,145,145,145,145,145,145,145,145,145,153,161,161,161,161,33,25,25,17,17,34,161,33,25,17,25,17,25,17,25,17,25,17,37,0,0,0,0,0,0,0,0,0,0,0,0,0,0,0,0,0,38,34,161,161,153,153,153,153,153,145,145,145,145,145,145,145,145,145,145,153,153,153,153,161,161,161,33,25,17,25,25,17,25,25,17,25,25,37,0,0,0,0,0,0,0,0,0,0,
0,0,0,0,0,0,0,0,0,0,0,0,0,0,0,0,0,0,0,0,0,0,0,0,0,0,0,0,0,18,161,161,153,153,153,153,153,153,153,153,153,153,153,153,153,153,153,153,153,153,153,153,153,153,153,153,153,153,153,153,153,153,153,153,153,153,153,153,153,153,153,153,161,33,25,17,37,0,0,0,0,38,17,37,0,0,0,0,0,0,0,0,0,0,0,0,0,0,0,0,0,0,0,0,0,0,0,0,0,10,0,0,0,38,34,161,161,161,161,161,153,153,153,153,153,153,153,153,153,153,153,153,161,161,161,161,33,17,37,0,0,0,0,0,0,0,0,0,0,0,0,0,0,0,0,10,0,0,0,0,
0,0,0,10,0,0,0,0,0,0,10,0,0,0,0,0,0,0,0,0,0,0,0,0,0,0,0,0,0,38,34,161,161,161,161,161,161,161,161,161,161,161,161,161,161,161,161,161,161,161,161,161,161,161,161,161,161,161,161,161,161,161,161,161,161,161,161,161,161,161,161,161,161,28,0,0,0,0,0,0,0,0,0,0,0,0,0,0,0,0,0,0,0,0,0,0,0,0,0,0,0,0,0,0,0,0,0,0,0,0,0,0,0,0,38,17,25,17,34,161,161,161,161,161,161,161,161,161,161,161,161,161,161,33,25,17,37,0,0,0,0,10,0,0,0,0,0,0,0,0,0,0,0,0,0,0,0,0,0,0,
0,0,0,0,0,0,0,0,0,0,0,0,0,234,0,0,0,0,0,0,0,0,10,0,0,0,0,0,0,0,38,17,25,25,17,25,25,25,17,25,17,25,17,25,17,25,17,25,17,25,17,25,25,17,25,17,25,17,25,17,25,25,17,17,25,17,25,25,17,25,17,25,17,37,0,0,0,0,0,0,0,0,0,0,0,0,0,0,0,0,0,10,0,0,0,0,0,0,0,0,0,0,0,0,0,0,0,0,0,0,0,0,0,0,0,0,0,0,38,25,17,25,25,17,17,25,25,17,25,25,17,25,17,37,0,0,0,0,0,0,0,0,0,0,0,0,0,0,0,0,0,0,0,0,0,0,0,0,0,0,
0,0,0,0,0,0,0,0,0,0,0,0,0,234,0,0,0,0,0,0,0,0,0,0,0,0,0,0,0,0,0,0,0,0,0,0,0,0,0,0,0,0,0,0,0,0,0,0,0,0,0,0,0,0,0,0,0,0,0,0,0,0,0,0,0,0,0,0,0,0,0,0,0,0,0,0,0,0,0,0,0,0,0,10,0,0,0,0,0,0,0,0,0,0,0,0,0,0,0,0,0,0,0,0,0,10,0,0,0,0,0,0,10,0,0,0,0,0,0,0,0,0,0,0,0,0,0,0,0,0,0,0,0,0,0,0,0,0,0,10,0,0,0,0,0,0,0,10,0,0,0,0,0,0,0,0,0,0,0,0,
0,0,0,0,0,0,0,10,0,0,0,0,0,234,0,0,0,10,0,0,0,0,0,0,0,0,0,0,0,0,0,0,0,0,0,0,0,0,0,0,0,0,0,0,0,0,0,0,0,0,0,0,0,0,0,0,0,0,0,0,0,0,0,0,0,0,0,0,0,0,0,0,0,0,0,0,0,0,0,0,0,0,0,0,0,10,0,0,0,0,0,10,0,0,0,0,0,10,0,0,0,0,0,0,0,0,0,0,0,0,0,0,0,0,0,0,0,0,0,0,0,0,0,0,0,10,0,0,0,0,0,0,0,0,0,0,0,0,0,0,0,0,0,0,0,0,0,0,0,0,0,0,10,0,0,0,0,0,0,0,
0,0,0,0,0,0,0,0,0,0,0,0,0,234,0,0,0,0,0,0,0,0,0,0,0,0,0,10,0,0,0,0,0,10,0,0,0,0,0,0,0,0,0,0,10,0,0,0,0,0,0,0,0,0,0,0,0,0,0,0,0,0,0,0,0,0,0,0,0,0,0,0,0,0,0,10,0,0,0,0,0,0,0,0,0,0,0,0,0,0,0,0,0,0,0,0,0,0,0,0,0,10,0,0,0,0,0,0,0,0,0,0,0,0,0,0,0,0,0,0,0,0,0,0,0,0,0,0,0,0,0,0,10,0,0,0,0,0,0,0,0,0,0,0,0,0,0,0,0,0,0,0,0,0,0,0,0,0,0,0,
0,0,10,0,0,0,0,0,0,0,0,0,0,234,0,0,0,0,0,0,0,0,0,0,0,0,0,0,0,0,0,0,0,0,0,0,0,0,0,0,0,10,0,0,0,0,0,0,0,0,0,0,0,0,0,0,0,0,0,0,0,0,0,0,0,0,0,0,10,0,0,0,0,0,0,0,0,0,10,0,0,0,0,0,0,0,0,0,0,0,0,0,0,0,0,0,0,0,0,10,0,0,0,0,0,10,0,0,0,0,0,0,0,0,0,0,0,0,0,0,0,0,0,0,0,0,0,0,0,0,0,0,0,0,0,0,0,0,0,0,0,0,0,0,0,0,0,0,0,0,0,0,0,0,0,0,0,0,0,0,
0,0,0,0,0,0,0,0,0,0,0,0,0,234,0,0,0,0,0,0,0,0,0,0,0,0,0,0,0,0,0,0,0,0,0,0,0,0,0,0,0,0,0,0,0,0,0,0,0,0,0,0,0,10,0,0,0,0,0,0,0,0,0,0,10,0,0,0,0,0,0,0,0,0,0,0,0,0,0,0,0,0,0,0,0,0,0,0,0,0,0,0,0,0,0,0,0,0,0,0,0,10,0,0,0,0,0,0,0,0,0,10,0,0,0,0,0,0,0,10,0,0,0,0,0,0,0,0,0,0,0,0,0,0,0,0,0,0,0,0,0,0,0,0,0,0,0,0,0,0,0,0,0,0,0,0,0,0,0,0,
0,0,0,0,0,0,0,0,0,0,0,0,0,234,0,0,0,0,0,0,0,0,0,0,0,0,0,0,0,0,0,0,0,0,0,0,0,0,0,0,0,0,0,0,0,0,0,0,0,0,0,0,0,0,0,0,0,0,0,0,0,0,0,0,0,0,0,0,0,0,0,0,0,0,0,0,0,0,10,0,0,0,0,0,10,0,0,0,0,0,0,0,0,0,0,0,0,0,0,0,0,0,0,0,0,0,0,0,0,0,0,0,0,0,0,0,0,0,0,0,0,0,0,0,0,0,0,0,0,0,0,0,0,0,0,0,0,0,0,0,0,0,0,0,0,0,0,0,0,0,0,0,10,0,0,0,0,0,0,0,
0,0,0,0,0,0,0,0,0,0,0,0,0,234,10,0,0,0,0,0,0,0,0,0,0,0,0,0,0,0,0,0,0,10,0,0,0,0,0,0,0,0,0,0,0,0,0,0,0,0,0,0,0,0,0,0,0,10,0,0,0,0,0,0,0,0,0,0,0,0,0,0,10,0,0,0,0,0,0,0,0,0,0,0,0,0,0,0,0,10,0,0,0,0,0,0,0,0,0,0,0,0,0,0,0,0,0,0,0,0,0,0,0,0,0,0,0,0,0,0,0,0,0,10,10,0,0,0,0,0,0,0,10,0,0,0,0,0,0,0,10,0,0,0,0,0,0,0,0,0,0,0,0,0,0,0,0,0,10,0,
0,0,0,0,10,0,0,0,0,0,0,0,0,234,0,0,0,0,0,0,0,0,0,0,0,10,0,0,0,0,0,0,0,0,0,0,10,0,0,0,0,10,0,0,0,0,0,0,0,0,0,0,0,0,0,0,0,0,0,0,0,0,0,0,0,0,0,0,0,0,0,0,0,0,0,0,0,0,0,0,0,0,0,0,0,0,0,0,0,0,0,0,10,0,0,0,0,0,0,0,0,0,0,0,0,0,0,0,0,0,0,0,0,0,0,0,0,0,0,0,0,0,0,0,0,0,0,0,0,0,0,0,10,0,0,0,0,0,0,10,0,0,0,0,0,0,0,0,0,0,0,0,0,0,0,0,0,0,0,0,
0,0,0,0,0,0,0,0,0,0,0,0,0,234,0,0,0,0,0,0,0,0,0,0,0,0,0,0,0,0,0,0,0,0,0,0,0,0,0,0,0,0,0,0,0,0,0,10,0,0,0,0,0,0,0,0,10,0,0,0,10,0,0,0,0,0,0,0,0,0,0,0,0,0,0,0,10,0,0,10,0,0,0,0,0,0,0,0,0,0,0,0,0,0,0,0,0,0,0,0,0,0,0,0,0,0,0,0,0,0,0,10,0,0,0,0,0,0,0,0,0,0,0,0,0,0,0,0,0,0,0,0,0,0,0,0,0,0,0,0,0,0,0,0,0,0,0,0,0,0,0,0,0,0,0,0,0,0,0,0,
0,0,0,0,0,0,0,0,0,0,0,0,0,234,0,0,0,0,0,0,0,0,0,0,0,0,0,0,0,0,0,0,0,0,0,0,0,0,0,0,0,0,0,0,0,0,0,0,0,0,0,0,0,0,0,0,0,0,0,0,0,0,0,0,0,0,0,0,0,10,0,0,0,0,0,0,0,0,0,0,0,0,0,0,0,0,0,0,0,0,0,0,0,0,0,0,10,0,0,0,0,0,0,0,0,10,0,0,0,0,0,0,0,0,0,0,0,0,0,0,0,0,0,0,0,0,0,10,0,0,0,0,0,0,0,0,0,0,0,0,0,0,0,0,0,0,0,10,0,0,0,0,0,0,0,0,0,0,0,0,
0,0,0,0,10,0,0,10,0,0,0,0,0,234,0,0,0,0,0,0,10,0,0,0,0,0,0,0,0,0,0,0,0,0,0,0,0,0,0,0,0,0,0,0,0,0,0,0,0,0,0,0,0,0,0,0,0,0,0,0,0,0,0,0,0,0,0,0,0,0,0,0,0,0,0,0,0,0,0,0,0,0,0,0,0,0,0,0,0,0,0,0,0,0,0,0,0,0,0,0,0,0,0,0,0,0,0,0,0,0,0,0,0,0,0,0,0,0,0,0,0,0,0,0,0,0,0,0,0,0,0,0,0,0,0,0,0,0,0,0,0,0,0,0,0,0,0,0,0,0,0,0,0,0,0,10,0,0,0,0,
10,0,0,0,0,0,0,0,0,0,0,0,0,234,0,0,0,0,0,0,0,0,0,0,0,0,0,0,0,0,0,0,0,0,0,0,0,0,0,0,0,0,0,0,0,0,0,0,0,10,0,0,0,0,0,0,0,0,0,0,0,0,0,0,0,0,0,0,0,0,0,0,0,0,0,0,0,0,0,0,0,0,0,0,0,0,0,0,0,0,0,0,0,0,0,0,0,0,0,0,0,0,0,0,0,0,0,0,0,0,0,0,0,0,0,0,0,0,0,0,0,0,0,0,0,0,0,0,0,0,0,0,0,0,0,0,0,0,0,0,0,0,0,0,0,0,0,0,0,0,0,0,0,0,0,0,0,0,0,0,
0,0,0,0,0,0,0,0,0,0,0,0,0,0,0,0,0,0,0,0,0,0,0,0,0,0,0,0,0,0,10,0,0,0,0,10,0,0,0,0,0,0,0,0,0,0,0,0,0,0,0,0,0,0,0,0,0,0,0,0,0,0,0,0,0,0,0,0,0,0,0,0,0,0,0,0,0,0,0,0,0,0,0,0,10,0,0,0,0,0,0,0,0,0,0,0,0,0,0,0,0,0,0,0,0,0,0,0,0,0,0,0,0,0,0,0,0,0,0,10,0,0,0,0,0,0,0,0,0,0,0,0,0,0,0,0,10,0,0,0,0,0,0,0,0,0,0,0,0,0,0,0,0,0,0,0,0,0,0,0,
0,0,0,0,0,0,0,0,0,0,0,0,0,0,0,0,0,0,0,0,0,0,0,0,0,0,0,0,0,0,0,0,0,0,0,0,0,0,0,0,0,0,0,0,0,0,0,0,0,0,0,0,0,0,0,0,0,0,10,0,0,0,0,0,10,0,0,0,0,0,0,0,0,0,0,0,0,0,0,0,0,0,0,0,0,0,0,0,0,0,0,0,0,0,0,0,0,0,0,0,0,0,0,0,0,0,0,0,0,0,0,0,0,0,0,0,0,0,0,0,0,0,0,0,0,0,0,0,0,0,0,0,0,10,0,0,0,0,0,0,0,0,0,0,0,0,0,0,0,0,0,0,0,0,0,0,0,0,0,0,
0,0,0,0,0,0,0,0,0,0,0,0,0,0,0,0,0,0,0,0,0,0,0,0,0,0,0,0,0,0,0,0,0,0,0,0,0,0,0,0,0,0,0,0,0,0,0,0,0,0,0,0,0,0,0,0,0,0,0,0,0,0,0,0,0,0,0,0,0,0,0,0,0,0,0,0,0,0,0,0,0,0,0,0,0,0,0,0,0,0,0,0,0,0,0,0,0,0,0,0,0,0,0,0,0,0,0,0,0,0,0,0,0,0,0,0,0,0,0,0,0,0,0,0,0,0,0,0,0,0,0,0,0,0,0,0,0,0,0,0,0,0,0,0,0,0,0,0,0,0,0,0,0,0,0,0,0,0,10,0,
0,0,0,0,0,0,0,0,0,0,0,0,0,0,0,0,0,0,0,0,0,0,0,0,0,0,0,0,0,0,0,0,0,0,0,0,0,0,0,0,0,0,0,0,0,0,0,0,0,0,0,0,0,0,0,0,0,0,0,0,0,0,0,0,0,0,0,0,0,0,0,0,0,0,0,0,0,0,0,0,0,0,0,0,0,0,0,0,0,0,0,0,0,0,0,0,0,0,0,0,0,10,0,0,0,0,0,0,0,0,0,0,0,0,0,0,0,0,0,0,0,0,0,0,0,0,0,0,0,0,0,0,0,0,0,0,0,0,0,0,0,0,0,0,0,0,0,0,0,0,0,0,0,0,0,0,0,0,0,0
</data>
 </layer>
 <layer id="10" name="Terrain" width="160" height="40" locked="1">
  <data encoding="csv">
331,332,0,0,331,332,0,330,322,0,335,0,331,332,346,0,324,0,331,332,0,335,330,334,323,321,0,335,330,0,0,0,0,0,0,0,0,0,0,0,0,0,0,441,0,0,322,0,0,0,319,0,0,0,0,0,0,0,0,0,0,331,332,0,324,0,0,0,0,0,0,347,348,0,0,0,0,323,0,0,0,0,331,332,0,0,0,324,0,0,331,332,0,0,319,0,0,0,0,330,0,0,335,0,0,331,332,321,0,341,0,331,332,0,0,0,324,0,0,319,0,0,0,0,0,0,0,0,331,332,0,0,0,0,0,334,0,331,332,0,0,331,332,0,0,0,0,0,0,323,0,0,0,0,0,0,0,0,0,0,
347,348,323,321,347,348,0,346,0,0,0,334,347,348,0,0,319,0,347,348,0,322,346,0,0,335,318,0,346,0,442,0,0,0,0,0,0,0,0,0,0,0,0,441,0,0,0,331,332,0,0,335,0,321,331,332,318,0,0,335,0,347,348,323,331,332,0,0,0,335,0,0,0,0,335,0,0,0,0,0,334,0,347,348,0,0,335,0,321,0,347,348,0,335,0,331,332,323,0,346,322,331,332,0,0,347,348,0,0,318,0,347,348,0,0,335,0,331,332,0,0,0,331,332,0,335,330,0,347,348,0,323,335,0,318,0,0,347,348,0,0,347,348,0,331,332,0,330,318,0,335,0,331,332,0,0,0,0,0,0,
0,0,331,332,0,318,0,0,0,0,0,0,0,0,0,0,0,0,0,0,0,0,0,0,0,0,0,441,441,441,441,0,0,0,0,0,0,0,0,0,0,0,0,441,0,330,0,347,348,0,0,0,331,332,347,348,0,0,331,332,0,331,332,0,347,348,335,0,331,332,0,0,0,0,331,332,324,0,331,332,0,341,0,0,0,0,0,0,330,0,0,0,0,0,0,347,348,0,0,331,332,347,348,331,332,0,0,0,330,0,335,0,331,332,0,334,0,347,348,0,0,0,347,348,0,0,346,0,0,0,331,332,0,0,330,324,0,0,0,318,0,331,332,0,347,348,0,346,0,0,0,324,347,348,0,0,0,0,0,0,
322,0,347,348,0,0,330,0,441,0,0,0,0,0,0,0,0,0,0,0,0,0,0,0,0,0,0,457,457,457,457,0,0,0,0,0,0,0,0,0,0,0,0,457,0,346,0,341,331,332,0,335,347,348,0,0,334,0,347,348,0,347,348,319,0,0,0,0,347,348,322,0,0,0,347,348,0,0,347,348,0,0,335,319,335,318,0,0,346,0,0,335,0,334,331,332,0,0,0,347,348,0,0,347,348,0,0,0,346,323,0,0,347,348,0,0,330,0,0,0,323,0,0,0,0,0,0,319,0,0,347,348,335,0,346,0,0,0,0,335,330,347,348,0,0,0,319,0,316,0,0,0,0,0,0,0,0,0,0,0,
0,0,319,0,335,0,346,0,457,0,0,0,0,0,0,0,0,0,0,0,0,0,0,0,0,0,0,0,0,0,0,0,0,0,0,0,0,0,0,0,0,0,0,0,0,0,0,0,347,348,0,0,0,0,0,341,331,332,0,0,0,0,0,0,331,332,318,0,334,0,0,0,335,0,0,0,335,0,0,0,0,0,0,0,0,0,0,323,0,0,322,0,0,341,347,348,0,321,0,318,0,0,324,0,0,0,319,0,0,0,0,322,0,0,0,0,346,0,0,0,318,0,0,335,0,324,0,0,0,0,0,0,0,0,0,319,0,0,0,0,346,0,0,323,0,334,0,324,0,0,442,442,442,0,0,0,0,0,0,0,
441,441,0,0,0,0,0,0,441,0,0,0,0,0,0,0,0,0,0,0,0,0,0,0,0,0,0,0,0,0,0,0,0,0,0,0,0,0,0,0,0,0,0,0,0,0,442,0,0,0,318,331,332,0,0,0,347,348,0,0,335,331,332,0,347,348,0,0,0,331,332,0,0,0,0,0,0,0,0,330,0,335,0,331,332,324,0,441,441,441,441,441,441,441,441,0,0,0,0,0,0,0,0,0,0,0,0,0,0,0,0,0,0,0,0,0,0,0,0,0,0,0,0,0,0,0,0,0,0,0,0,0,0,0,0,441,441,441,441,0,0,0,441,0,0,0,0,0,0,0,0,0,0,0,0,0,0,0,0,0,
457,457,442,0,0,0,0,442,457,0,0,0,0,0,0,0,0,0,0,0,0,0,0,0,0,0,0,0,0,0,0,0,0,0,0,0,0,0,0,0,0,0,0,0,0,0,0,0,0,330,0,347,348,0,0,335,0,0,322,0,0,347,348,0,0,0,0,0,0,347,348,0,0,331,332,323,0,0,0,346,0,0,0,347,348,0,0,457,457,457,457,457,457,457,457,442,0,0,0,0,0,0,0,0,0,0,0,0,0,0,0,0,0,0,0,0,0,0,0,0,0,442,442,0,0,0,0,0,0,0,0,0,0,0,0,457,457,457,457,442,442,0,457,0,0,0,0,0,0,0,0,0,0,0,0,0,0,0,0,0,
0,0,0,0,0,0,0,0,0,0,0,0,0,0,0,0,0,0,0,0,0,0,0,0,0,0,0,0,0,0,0,0,0,0,0,0,0,0,0,0,0,0,0,0,0,0,0,0,0,346,0,323,0,324,0,0,0,0,0,0,0,0,0,330,0,0,0,335,0,0,0,0,0,347,348,0,335,318,0,322,0,0,0,0,0,0,0,442,0,0,0,0,0,0,0,0,0,0,0,0,0,0,0,0,0,0,0,0,0,0,0,0,0,0,0,0,0,0,0,0,0,0,0,0,0,0,0,0,0,0,0,0,0,0,0,0,0,0,0,0,0,0,0,0,0,0,0,0,0,0,0,0,0,0,0,0,0,0,0,0,
0,0,0,0,0,0,0,0,0,0,0,0,0,0,0,0,0,0,0,0,0,0,0,0,0,0,0,0,0,0,0,0,0,0,0,0,0,0,0,0,0,0,0,0,0,0,0,0,0,0,0,0,0,0,0,0,0,0,0,0,441,441,0,346,0,0,341,0,0,0,321,0,0,0,0,0,0,0,0,0,0,0,0,0,0,338,0,442,0,0,0,0,0,0,0,0,0,0,0,0,0,0,0,0,0,0,0,0,0,0,0,0,0,0,0,0,0,0,0,0,0,0,0,0,0,0,0,0,0,0,0,0,0,0,0,0,0,0,0,0,0,0,0,0,0,0,0,0,0,0,0,0,0,0,0,0,0,0,0,0,
0,0,0,0,0,0,0,0,0,0,0,0,0,0,0,0,0,0,0,0,0,0,0,0,0,0,0,0,0,0,0,0,0,0,0,0,0,0,0,0,0,0,0,0,0,0,0,0,0,0,0,0,0,0,0,0,0,0,0,0,457,457,0,0,0,0,0,0,0,441,441,441,441,441,441,441,441,0,0,0,0,0,0,0,0,0,0,0,0,0,0,0,0,0,0,0,0,0,0,0,0,0,0,0,0,0,0,0,0,0,0,0,0,0,0,0,0,0,0,0,0,0,0,0,0,0,0,0,0,0,0,0,0,0,0,0,0,0,0,0,0,0,0,0,0,0,0,0,0,0,0,0,0,0,0,0,0,0,0,0,
0,0,0,0,0,0,0,0,0,0,0,0,0,0,0,0,0,0,0,0,0,0,0,0,0,0,0,0,0,0,0,0,0,0,0,0,0,0,0,0,0,0,0,0,0,0,0,0,0,0,0,0,0,0,0,0,0,0,0,0,0,457,441,0,442,442,0,0,0,457,457,457,457,457,457,457,457,0,0,0,0,0,0,0,0,0,0,0,0,0,0,0,0,0,0,0,0,0,0,0,0,0,0,0,0,0,0,0,0,0,0,0,0,0,0,0,0,0,0,0,0,0,0,0,0,0,0,0,0,0,0,0,0,0,0,0,0,0,0,0,0,0,0,0,0,0,0,0,0,0,0,0,0,0,0,0,0,0,0,0,
0,0,0,0,0,0,0,0,0,0,0,0,0,0,0,0,0,0,0,0,0,0,0,0,0,0,0,0,0,0,0,0,0,0,0,0,0,0,0,0,0,0,0,0,0,0,0,0,0,0,0,0,0,0,0,0,0,0,0,0,0,0,457,0,0,0,0,0,0,0,0,0,0,0,0,0,0,0,0,0,0,0,0,0,0,0,0,0,0,0,0,0,0,0,0,0,0,0,0,0,0,0,0,0,0,0,0,0,0,0,0,0,0,0,0,0,0,0,0,0,0,0,0,0,0,0,0,0,0,0,0,0,0,0,0,0,0,0,0,0,0,0,0,0,0,0,0,0,0,0,0,0,0,0,0,0,0,0,0,0,
0,0,0,0,0,0,0,0,0,0,0,0,0,0,0,0,0,0,0,0,0,0,0,0,0,0,0,0,0,0,0,0,0,0,0,0,0,0,0,0,0,0,0,0,0,0,0,0,0,0,0,0,0,0,0,0,0,0,0,0,0,0,0,0,0,0,0,0,0,0,0,0,0,0,0,0,0,0,0,0,0,0,0,0,0,0,0,0,0,0,0,0,0,0,0,0,0,0,0,0,0,0,0,0,0,0,0,0,0,0,0,0,0,0,0,0,0,0,0,0,0,0,0,0,0,0,0,0,0,0,0,0,0,0,0,0,0,0,0,0,0,0,0,0,0,0,0,0,0,0,0,0,0,0,0,0,0,0,0,0,
0,0,0,0,0,0,0,0,0,0,0,0,0,0,0,0,0,0,0,0,0,0,0,0,0,0,0,0,0,0,0,0,0,0,0,0,0,0,0,0,0,0,0,0,0,0,0,0,0,0,0,0,0,0,0,0,0,0,0,0,0,0,0,0,0,0,0,0,0,0,0,0,0,0,0,0,0,0,0,0,0,0,0,0,0,0,0,0,0,0,0,0,0,0,0,0,0,0,0,0,0,0,0,0,0,0,0,0,0,0,0,0,0,0,0,0,0,0,0,0,0,0,0,0,0,0,0,0,0,0,0,0,0,0,0,0,0,0,0,0,0,0,0,0,0,0,0,0,0,0,0,0,0,0,0,0,0,0,0,0,
0,0,0,0,0,0,0,0,0,0,0,0,0,0,0,0,0,0,0,0,0,0,0,0,0,0,0,0,0,0,0,0,0,0,0,0,0,0,0,0,0,0,0,0,0,0,0,0,0,0,0,0,0,0,0,0,0,0,0,0,0,0,0,0,0,0,0,0,0,0,0,0,0,0,0,0,0,0,0,0,0,0,0,0,0,0,0,0,0,0,0,0,0,0,0,0,0,0,0,0,0,0,0,0,0,0,0,0,0,0,0,0,0,0,0,0,0,0,0,0,0,0,0,0,0,0,0,0,0,0,0,0,0,0,0,0,0,0,0,0,0,0,0,0,0,0,0,0,0,0,0,0,0,0,0,0,0,0,0,0,
0,0,0,0,0,0,0,0,0,0,0,0,0,0,0,0,0,0,0,0,0,0,0,0,0,0,0,0,0,0,0,0,0,0,0,0,0,0,0,0,0,0,0,0,0,0,0,0,0,0,0,0,0,0,0,0,0,0,0,0,0,0,0,0,0,0,0,0,0,0,0,0,0,0,0,0,0,0,0,0,0,0,0,0,0,0,0,0,0,0,0,0,0,0,0,0,0,0,0,0,0,0,0,0,0,0,0,0,0,0,0,0,0,0,0,0,0,0,0,0,0,0,0,0,0,0,0,0,0,0,0,0,0,0,0,0,0,0,0,0,0,0,0,0,0,0,0,0,0,0,0,0,0,0,0,0,0,0,0,0,
441,441,0,0,0,0,0,0,0,0,0,0,0,0,0,0,0,0,0,0,0,0,0,0,0,0,0,0,0,0,0,0,0,0,0,0,0,0,0,0,0,0,0,0,0,0,0,0,0,0,0,0,0,0,0,0,0,0,0,0,0,0,0,0,0,0,0,0,0,0,0,0,0,0,0,0,0,0,0,0,0,0,0,0,0,0,0,0,0,0,0,0,0,0,0,0,0,0,0,0,0,0,0,0,0,0,0,0,0,0,0,0,0,0,0,0,0,0,0,0,0,0,0,0,0,0,0,0,0,0,0,0,0,0,0,0,0,0,0,0,0,0,0,0,0,0,0,0,0,0,0,0,0,0,0,0,0,0,0,0,
457,457,330,442,0,0,0,0,0,441,0,0,0,0,0,0,0,0,0,0,0,0,0,0,0,0,0,0,0,0,0,0,0,0,0,0,0,0,0,0,0,0,0,0,0,0,0,0,0,0,0,0,0,0,0,0,0,0,0,0,0,0,0,0,0,0,0,0,0,0,0,0,0,0,0,0,0,0,0,0,0,0,0,0,0,0,0,0,0,0,0,0,0,0,441,441,441,441,0,0,0,0,0,0,0,0,0,0,0,0,0,0,441,0,0,0,0,0,0,0,0,0,0,0,0,0,0,0,0,0,0,0,0,0,0,0,0,0,0,0,0,0,0,0,0,0,0,0,0,0,0,0,442,442,442,0,0,0,316,321,
0,0,346,0,331,332,0,330,0,457,441,441,0,0,0,441,0,0,0,0,0,0,0,0,0,0,0,0,0,0,0,0,0,0,0,0,0,0,0,0,0,0,0,0,0,0,0,0,0,0,0,0,0,0,0,0,0,0,0,0,0,0,0,0,0,0,0,0,0,0,0,0,0,0,0,0,441,0,0,0,0,0,0,0,0,0,0,0,0,0,0,0,0,441,457,457,457,457,442,0,0,0,0,0,0,0,0,0,0,0,0,0,457,441,0,0,0,0,0,0,0,0,0,0,0,0,0,0,0,0,0,0,0,0,0,0,0,0,0,0,0,0,0,0,0,0,0,0,0,0,0,0,442,0,0,0,323,0,330,0,
319,324,0,318,347,348,0,346,316,0,457,457,0,442,0,457,0,0,0,0,0,0,0,0,0,0,0,0,0,0,0,0,0,0,0,0,0,0,0,0,0,0,0,0,0,0,0,0,0,0,0,0,0,0,0,0,0,0,0,0,0,0,0,0,0,0,0,0,0,0,0,0,0,0,0,441,457,0,0,0,0,0,441,0,0,0,0,0,442,0,0,0,0,457,0,0,0,0,0,0,330,0,0,0,331,332,0,316,0,0,330,0,0,457,0,0,0,0,0,0,0,0,0,0,0,0,0,0,0,0,0,0,0,0,0,0,0,442,442,0,0,0,0,0,0,0,0,0,0,0,330,0,0,0,316,318,0,0,346,0,
0,331,332,0,0,0,0,0,0,316,0,331,332,0,0,0,0,0,0,0,331,332,0,330,341,0,0,316,0,0,441,441,0,0,0,0,0,0,0,0,0,0,0,0,0,0,0,0,0,0,0,0,0,0,0,0,0,0,0,0,0,0,0,0,0,0,0,0,0,0,0,0,0,442,0,457,0,0,0,0,0,0,457,0,316,0,0,0,0,0,0,0,0,330,316,0,0,0,331,332,346,0,0,0,347,348,0,331,332,0,346,0,316,0,442,0,0,0,0,0,0,0,0,0,0,0,0,0,0,0,0,0,0,0,0,0,0,442,0,0,0,0,0,0,0,0,0,0,316,0,346,0,0,0,0,0,331,332,0,0,
322,347,348,331,332,0,0,0,331,332,0,347,348,0,0,334,331,332,0,0,347,348,0,346,0,331,332,0,0,0,457,457,441,0,0,0,0,0,0,0,0,0,0,0,0,0,0,0,0,0,0,0,0,0,0,441,441,441,0,0,0,0,0,0,0,0,0,0,0,0,0,0,0,0,316,0,0,338,0,0,0,316,0,0,364,0,0,315,0,0,341,0,0,346,0,0,331,332,347,348,0,331,332,0,0,0,0,347,348,0,0,0,0,0,0,0,0,0,0,441,441,441,441,0,0,0,0,0,0,0,0,0,0,0,0,0,0,316,0,0,0,330,0,0,0,0,331,332,0,318,0,331,332,0,0,0,347,348,0,0,
0,0,0,347,348,0,0,341,347,348,0,0,0,0,331,332,347,348,0,331,332,0,0,0,0,347,348,0,330,0,0,442,457,0,0,0,0,0,0,0,0,0,0,0,0,0,0,0,0,0,0,0,0,0,442,457,457,457,0,0,0,0,0,0,0,0,0,0,0,0,0,0,0,0,331,332,0,0,331,332,0,321,0,0,0,0,331,332,0,321,0,0,0,0,331,332,347,348,0,0,324,347,348,0,0,330,0,0,0,318,0,0,330,0,0,0,0,316,0,457,457,457,457,442,0,0,0,0,0,0,0,0,0,0,0,0,316,0,0,0,0,346,0,0,0,0,347,348,0,0,0,347,348,0,321,0,0,0,0,322,
233,233,233,233,233,233,233,233,233,233,233,233,233,233,347,348,0,0,319,347,348,0,0,331,332,0,0,0,346,323,0,0,0,0,0,0,0,0,0,0,0,0,0,0,0,0,0,0,0,0,0,0,0,0,0,0,0,0,0,0,0,0,0,0,0,0,0,0,0,0,0,316,0,0,347,348,0,0,347,348,323,0,0,0,0,0,347,348,0,0,0,0,324,0,347,348,0,0,0,0,331,332,0,0,0,346,0,0,0,0,341,0,346,0,0,321,0,0,0,0,0,0,0,0,0,0,0,0,0,0,0,316,0,0,0,0,0,331,332,0,0,0,0,0,324,0,0,0,0,323,0,0,0,331,332,0,0,0,0,0,
323,0,0,0,0,0,0,0,0,185,186,0,324,0,0,318,0,331,332,0,0,0,0,347,348,0,0,0,0,0,0,0,0,0,0,341,315,0,321,0,316,0,0,0,0,0,331,332,0,333,0,316,0,0,331,332,0,330,0,316,321,0,0,341,0,323,0,0,331,332,0,0,331,332,0,331,332,0,0,330,0,0,0,0,0,0,0,0,331,332,0,331,332,318,0,0,315,331,332,0,347,348,0,316,0,0,331,332,331,332,0,0,0,0,0,322,0,0,0,330,0,0,0,0,0,0,322,0,0,0,0,0,0,0,330,0,0,347,348,0,0,318,0,331,332,0,331,332,0,0,331,332,0,347,348,0,331,332,0,0,
0,190,191,192,0,0,0,0,0,201,202,0,0,0,0,0,0,347,348,0,330,0,321,0,0,331,332,0,333,0,331,332,335,0,0,330,0,318,0,0,331,332,0,330,0,0,347,348,0,331,332,0,319,0,347,348,0,346,0,331,332,0,0,324,331,332,315,0,347,348,0,0,347,348,0,347,348,319,0,346,331,332,0,0,0,0,330,0,347,348,322,347,348,0,331,332,0,347,348,0,0,321,0,331,332,0,347,348,347,348,0,0,331,332,331,332,0,0,0,346,0,0,331,332,0,0,0,335,0,319,331,332,0,0,346,0,0,0,0,0,0,0,0,347,348,0,347,348,0,0,347,348,0,0,0,0,347,348,0,319,
0,206,207,208,0,0,190,191,192,0,400,0,0,0,321,0,0,322,0,0,346,331,332,0,0,347,348,0,0,0,347,348,0,0,0,346,0,0,331,332,347,348,0,346,0,0,0,0,0,347,348,323,0,0,0,0,0,0,0,347,348,335,332,0,347,348,0,0,0,0,0,318,0,0,322,0,0,0,0,0,347,348,0,331,332,0,346,0,0,0,0,335,331,332,347,348,0,0,0,0,331,332,0,347,348,0,0,0,0,0,0,0,347,348,347,348,0,331,332,0,0,324,347,348,0,331,332,0,0,0,347,348,0,0,0,0,331,332,0,323,0,0,0,337,0,0,0,0,0,0,0,0,0,331,332,0,0,0,0,0,
378,222,223,224,0,0,206,207,208,0,0,322,0,0,0,330,0,331,332,316,0,347,348,0,331,332,0,0,0,0,0,333,0,0,0,0,323,0,347,348,0,331,332,0,322,331,332,0,330,321,0,0,331,332,0,331,332,335,0,0,0,347,348,0,0,331,332,0,0,0,0,331,332,0,331,332,0,0,0,0,0,0,0,347,348,0,0,0,331,332,0,0,347,348,0,0,0,0,318,0,347,348,0,315,0,333,322,0,319,331,332,0,0,0,0,0,318,347,348,0,0,0,0,0,0,347,348,0,323,0,0,0,0,337,0,0,347,348,0,0,333,0,335,0,0,321,0,331,332,0,0,0,0,347,348,324,0,0,0,0,
377,406,0,0,0,382,222,223,224,379,0,0,0,0,0,346,0,347,348,331,332,0,0,0,347,348,331,332,0,333,0,331,332,0,0,331,332,0,316,0,0,347,348,0,0,347,348,0,346,0,0,333,347,348,0,347,348,0,331,332,0,0,0,335,0,347,348,0,0,0,0,347,348,0,347,348,0,315,331,332,341,331,332,324,0,0,318,0,347,348,331,332,0,331,332,0,335,0,331,332,0,333,0,333,0,0,0,335,0,347,348,0,0,331,332,0,0,331,332,0,0,0,331,332,0,0,0,0,331,332,318,0,336,0,331,332,0,0,0,0,0,0,0,322,0,0,0,347,348,0,331,332,0,0,0,318,0,0,323,0,
384,0,0,0,0,0,400,0,0,0,0,0,0,0,323,331,332,0,335,347,348,336,0,0,0,0,347,348,0,0,0,347,348,0,0,347,348,330,0,319,0,0,331,332,333,0,0,0,331,332,0,0,315,0,0,0,0,0,347,348,336,0,0,330,0,0,322,0,336,0,0,0,331,332,0,0,0,0,347,348,0,347,348,0,322,0,0,336,0,0,347,348,0,347,348,0,0,0,347,348,0,0,0,0,0,0,333,331,332,0,0,315,0,347,348,0,321,347,348,341,323,0,347,348,316,0,330,0,347,348,0,0,0,0,347,348,0,0,0,0,0,0,0,331,332,0,318,0,0,0,347,348,0,0,0,0,0,0,331,332,
0,322,0,402,403,0,0,0,0,0,185,186,0,0,0,347,348,324,0,0,0,333,330,0,0,0,0,323,0,0,0,0,0,331,332,0,0,346,0,331,332,0,347,348,0,0,0,0,347,348,0,333,0,318,0,331,332,0,0,0,331,332,0,346,0,319,0,331,332,0,321,0,347,348,0,0,333,0,0,0,331,332,0,0,331,332,0,0,0,0,318,0,0,0,323,331,332,0,0,0,0,331,332,0,331,332,0,347,348,0,318,0,0,0,0,0,331,332,0,319,0,0,0,0,0,0,346,0,0,0,331,332,324,0,0,0,0,0,331,332,0,0,0,347,348,0,0,0,0,0,0,0,0,322,0,0,0,335,347,348,
0,0,0,418,419,400,0,0,0,0,201,202,0,0,335,0,0,0,0,0,0,0,346,0,331,332,335,0,0,336,331,332,0,347,348,0,324,0,0,347,348,0,0,0,0,333,0,331,332,0,0,331,332,0,335,347,348,336,0,0,347,348,0,0,318,0,0,347,348,0,331,332,0,0,0,0,0,0,0,0,347,348,0,0,347,348,319,0,331,332,0,0,331,332,0,347,348,0,0,0,341,347,348,0,347,348,333,323,0,0,0,0,0,0,335,0,347,348,0,0,0,0,333,0,333,0,315,0,0,336,347,348,0,0,0,323,0,0,347,348,0,0,0,0,0,0,0,331,332,331,332,0,0,0,331,332,0,0,0,0,
0,0,0,0,0,0,0,0,0,0,401,0,0,0,331,332,0,0,0,331,332,333,0,0,347,348,0,331,332,333,347,348,0,0,0,331,332,0,322,0,0,0,0,331,332,0,0,347,348,335,333,347,348,0,324,0,0,0,0,0,0,331,332,0,335,331,332,0,0,0,347,348,0,0,0,331,332,0,0,0,333,0,0,333,0,331,332,0,347,348,0,0,347,348,333,0,0,0,331,332,319,0,0,0,324,0,0,0,0,331,332,0,331,332,336,0,0,0,331,332,0,333,0,0,331,332,0,0,0,0,0,0,321,322,331,332,0,0,0,0,0,0,333,0,0,315,0,347,348,347,348,0,331,332,347,348,0,0,0,0,
0,0,0,0,0,0,0,0,0,0,0,0,273,0,347,348,0,331,332,347,348,0,0,333,0,0,0,347,348,0,0,0,321,0,0,347,348,331,332,0,331,332,0,347,348,0,0,0,0,0,0,0,0,0,331,332,0,333,0,0,0,347,348,0,0,347,348,0,0,333,0,0,333,323,0,347,348,0,318,0,0,0,333,0,0,347,348,323,0,0,331,332,0,0,0,0,322,0,347,348,323,0,0,0,0,0,0,0,0,347,348,0,347,348,0,0,0,0,347,348,0,0,331,332,347,348,0,0,0,0,0,0,0,0,347,348,0,0,0,0,0,0,0,0,319,0,0,0,0,0,0,0,347,348,0,0,0,0,0,0,
0,0,0,0,323,0,246,247,0,0,300,0,274,0,0,0,0,347,348,0,0,0,333,0,0,0,0,0,0,0,331,332,0,331,332,0,0,347,348,0,347,348,323,0,0,336,331,332,0,0,341,0,0,0,347,348,0,0,331,332,323,0,0,0,331,332,0,333,0,0,0,0,0,0,0,0,0,0,0,0,322,331,332,0,0,335,0,0,318,0,347,348,0,331,332,0,331,332,0,0,0,0,331,332,0,335,0,331,332,0,331,332,0,0,323,335,336,0,0,0,318,0,347,348,0,0,0,0,331,332,0,331,332,0,0,0,0,318,331,332,0,331,332,0,0,324,0,0,0,0,0,0,0,0,331,332,0,0,0,0,
233,233,233,233,233,233,262,263,233,233,233,233,233,233,0,0,330,0,0,336,331,332,0,0,0,0,0,333,0,0,347,348,0,347,348,0,0,0,0,331,332,0,331,332,0,0,347,348,0,0,0,0,0,0,0,0,0,0,347,348,0,0,331,332,347,348,0,0,330,333,0,331,332,0,0,0,0,0,324,331,332,347,348,331,332,0,0,0,0,0,331,332,0,347,348,0,347,348,0,0,0,0,347,348,0,0,0,347,348,0,347,348,0,331,332,0,0,0,0,0,0,0,0,0,0,0,0,0,347,348,0,347,348,0,0,0,0,0,347,348,0,347,348,315,0,0,0,0,331,332,0,0,0,0,347,348,0,0,0,0,
331,332,331,332,0,0,0,0,0,331,332,331,332,0,318,0,346,0,0,0,347,348,0,318,0,0,324,0,0,0,0,0,0,335,0,0,0,0,0,347,348,0,347,348,0,333,0,0,0,0,331,332,0,322,333,0,331,332,0,0,0,0,347,348,0,0,0,0,346,0,0,347,348,331,332,331,332,0,0,347,348,0,0,347,348,0,0,331,332,0,347,348,0,0,0,331,332,0,0,331,332,0,0,0,331,332,0,0,0,0,0,0,0,347,348,0,315,0,0,331,332,0,0,331,332,0,0,0,331,332,0,0,331,332,315,0,0,0,0,0,0,0,0,0,318,0,335,0,347,348,0,318,0,0,0,0,0,318,0,0,
347,348,347,348,331,332,0,0,0,347,348,347,348,0,0,0,0,0,331,332,0,0,331,332,0,335,331,332,0,0,331,332,0,0,0,331,332,0,331,332,0,331,332,0,333,0,0,324,0,0,347,348,0,0,0,0,347,348,0,331,332,321,0,0,333,0,0,0,0,0,0,0,0,347,348,347,348,0,0,0,0,331,332,0,0,0,0,347,348,0,0,0,0,0,0,347,348,0,0,347,348,0,0,335,347,348,0,0,331,332,0,0,0,0,0,318,0,0,0,347,348,0,0,347,348,321,0,0,347,348,0,0,347,348,341,0,0,0,331,332,0,0,0,0,0,0,0,0,0,0,0,0,0,0,0,0,0,0,0,0,
0,331,332,0,347,348,0,331,332,0,331,332,0,331,332,0,0,0,347,348,323,0,347,348,0,0,347,348,0,322,347,348,0,0,0,347,348,335,347,348,0,347,348,0,0,0,331,332,0,0,323,0,333,0,0,333,0,0,0,347,348,0,0,0,0,0,331,332,0,0,324,0,0,0,318,0,0,0,0,0,0,347,348,0,0,0,0,0,0,0,0,0,0,331,332,0,0,0,0,0,0,0,0,0,0,0,0,0,347,348,0,0,324,0,0,0,0,0,0,0,0,0,0,0,0,0,0,0,0,0,0,0,0,0,0,0,0,0,347,348,0,0,0,322,0,0,0,0,0,0,0,0,335,0,0,0,0,0,0,324,
0,347,348,0,0,0,0,347,348,0,347,348,0,347,348,0,0,0,0,0,0,0,0,0,0,0,0,0,0,0,0,0,0,0,0,0,0,0,0,0,0,0,0,0,0,0,347,348,0,0,0,0,0,0,0,0,0,0,0,0,0,0,333,0,0,0,347,348,0,0,0,0,0,0,0,0,0,0,0,0,0,0,0,0,0,0,0,0,0,0,0,0,0,347,348,0,0,0,0,0,0,0,0,0,0,0,0,0,0,0,0,0,0,0,0,0,0,0,0,0,0,0,0,335,0,0,0,0,0,0,0,0,0,0,0,0,0,0,0,0,0,0,0,0,0,0,0,0,0,0,0,0,0,0,0,0,318,0,0,0
</data>
 </layer>
 <objectgroup id="16" name="Stakes"/>
 <objectgroup id="17" name="Boats"/>
 <objectgroup id="18" name="Tide"/>
</map>
